X: 333
T:N'avez point veu mal assen\'ee
N: Derived from Jos2728-Navez_point_veu_mal_assenee.krn
C: Josquin des Prez
%%abc-version 2.0
%%abcx-abcm2ps-target-version 5.9.1 (29 Sep 2008)
%%abc-creator hum2abc beta
%%abcx-conversion-date 2019/02/12 16:15:54
%%abc-edited-by Jesse Rodin
%%abc-edited-by Mauricio Rodriguez 2012/01/31
%%abcx-initial-encoding-date 2012/01/31/
%%humdrum-veritas 3404226294
%%humdrum-veritas-data 2207707766
%%linebreak <none>
%%barnumbers 0
L: 1/4
M: 2/1
Q: 1/2=120
V: 1 clef=treble-8
V: 2 clef=treble-8
V: 3 clef=bass
K: C
[V:1] z8 | 
[V:2] z8 | 
[V:3] A,,2A,,B,,C,2C,2 | 
[V:1] z4B2Bc | 
[V:2] E2EFG2G2 | 
[V:3] C,2C,2G,,3A,, | 
[V:1] d2d2d2d2 | 
[V:2] G2G2F4 | 
[V:3] B,,A,,B,,C,D,4 | 
[V:1] c4B4- | 
[V:2] E8 | 
[V:3] A,,4z4 | 
[V:1] B4z4 | 
[V:2] z4B2Bc | 
[V:3] E,2E,F,G,2E,2 | 
[V:1] z4e2ef | 
[V:2] d2B2c2A2 | 
[V:3] F,2D,2C,3D, | 
[V:1] g2e2f2d2 | 
[V:2] G2A3GG2 | 
[V:3] E,2C,2D,2B,,2 | 
[V:1] c2e2e2d2- | 
[V:2] A2GFEFGE | 
[V:3] A,,3B,,C,2G,,2 | 
[V:1] dcc4B2 | 
[V:2] FEDCD4 | 
[V:3] A,,4G,,4 | 
[V:1] c8- | 
[V:2] C8 | 
[V:3] C,4z4 | 
[V:1] c8 | 
[V:2] z8 | 
[V:3] A,,2A,,B,,C,2C,2 | 
[V:1] z4B2Bc | 
[V:2] E2EFG2G2 | 
[V:3] C,2C,2G,,3A,, | 
[V:1] d2d2d2d2 | 
[V:2] G2G2F4 | 
[V:3] B,,A,,B,,C,D,4 | 
[V:1] c4B4- | 
[V:2] E8 | 
[V:3] A,,4z4 | 
[V:1] B4z4 | 
[V:2] z4B2Bc | 
[V:3] E,2E,F,G,2E,2 | 
[V:1] z4e2ef | 
[V:2] d2B2c2A2 | 
[V:3] F,2D,2C,3D, | 
[V:1] g2e2f2d2 | 
[V:2] G2A3GG2 | 
[V:3] E,2C,2D,2B,,2 | 
[V:1] c2e4d2- | 
[V:2] A2GFEFGE | 
[V:3] A,,3B,,C,2G,,2 | 
[V:1] dcc4B2 | 
[V:2] FEDCD4 | 
[V:3] A,,4G,,4 | 
[V:1] c8 | 
[V:2] C8 | 
[V:3] C,4z2E,2 | 
[V:1] z4z2e2 | 
[V:2] z2A2A2A2 | 
[V:3] D,2D,2A,,3B,, | 
[V:1] e2e2B3c | 
[V:2] E3FG2E2 | 
[V:3] C,2A,,2G,,3A,, | 
[V:1] d2B2A3B | 
[V:2] D3EFGA2- | 
[V:3] B,,C,D,4C,B,, | 
[V:1] cde4dc | 
[V:2] A2GFE3F | 
[V:3] A,,3B,,C,2A,,2 | 
[V:1] B3cd2B2 | 
[V:2] G2E2D3E | 
[V:3] G,,3A,,_B,,2G,,2 | 
[V:1] A3Bcde2- | 
[V:2] F2D2C2c2 | 
[V:3] F,,2F,2E,2C,2 | 
[V:1] edc4B2 | 
[V:2] B2A4GF | 
[V:3] E,2F,2D,4 | 
[V:1] A2G2c4 | 
[V:2] E8 | 
[V:3] C,4z2C,2- | 
[V:1] z8 | 
[V:2] z2G4F2 | 
[V:3] C,2B,,2C,2D,2 | 
[V:1] z8 | 
[V:2] G3AB2B2 | 
[V:3] E,2E,2D,2G,2 | 
[V:1] z8 | 
[V:2] A2c2B3G | 
[V:3] F,2A,3G,G,2- | 
[V:1] z4g2ga | 
[V:2] A4G4 | 
[V:3] G,2^F,2G,2z2 | 
[V:1] g3fe2d2 | 
[V:2] z4G2GA | 
[V:3] G,2G,A,G,3F, | 
[V:1] c2B2c2d2 | 
[V:2] G3FE2D2 | 
[V:3] E,2D,2C,2B,,2 | 
[V:1] e4d4 | 
[V:2] C2c3B/A/B2 | 
[V:3] C,4G,,4 | 
[V:1] z4g2ga | 
[V:2] c4z4 | 
[V:3] C,8- | 
[V:1] g3fe2d2 | 
[V:2] c2cdc3B | 
[V:3] C,8 | 
[V:1] c4e2ef | 
[V:2] A2A2G2c2 | 
[V:3] z4E,2E,A, | 
[V:1] e3dc2B2 | 
[V:2] B3AG2F2 | 
[V:3] G,3F,E,2D,2 | 
[V:1] c8 | 
[V:2] G4G4 | 
[V:3] C,4z2E,2 | 
[V:1] z4z2e2 | 
[V:2] z2A2A2A2 | 
[V:3] D,2D,2A,,3B,, | 
[V:1] e2e2B3c | 
[V:2] E3FG2E2 | 
[V:3] C,2A,,2G,,4- | 
[V:1] d2B2A4 | 
[V:2] D2D2F2F2 | 
[V:3] G,,4z2D,2 | 
[V:1] z2c2B2B2 | 
[V:2] E2C2D2D2 | 
[V:3] C,2A,,2G,,4 | 
[V:1] c8- | 
[V:2] C4z2E2 | 
[V:3] A,,3B,,C,4 | 
[V:1] c8 | 
[V:2] EEE2E2F2 | 
[V:3] A,,2A,,A,,A,,2A,,2 | 
[V:1] z4A2AA | 
[V:2] G2A3G^FE | 
[V:3] B,,2C,2D,4- | 
[V:1] A2A2B2c2 | 
[V:2] ^F2G^FG2z2 | 
[V:3] D,4G,,2A,,2 | 
[V:1] d2e4d2- | 
[V:2] G3FEDG2 | 
[V:3] B,,2C,3B,,G,,2 | 
[V:1] dcc3B/A/cB | 
[V:2] FEDCD4 | 
[V:3] A,,4G,,4 | 
[V:1] c8- | 
[V:2] C4z2E2 | 
[V:3] A,,3B,,C,4 | 
[V:1] c8 | 
[V:2] EEE2E2F2 | 
[V:3] A,,2A,,A,,A,,2A,,2 | 
[V:1] z4A2AA | 
[V:2] G2A3G^FE | 
[V:3] B,,2C,2D,4- | 
[V:1] A2A2B2c2 | 
[V:2] ^F2G^FG2z2 | 
[V:3] D,4G,,2A,,2 | 
[V:1] d2e4d2- | 
[V:2] G3FEDG2 | 
[V:3] B,,2C,3B,,G,,2 | 
[V:1] dcc4B2 | 
[V:2] FEDCD4 | 
[V:3] A,,4G,,4 | 
[V:1] c8 |]  
[V:2] C8 |]  
[V:3] C,8 |]  



